!!!ONB: MCCC : IFC0054_04 : Extracted Monophonic Melody
!!!COM: Chopin, Frédéric
!!!OPR: Mazurkas
!!!OMV: 4
!!!SCT: Op.50
!!!ODT: 1841///
**kern
*thru
*staff1
*Ipiano
*clefG2
*k[f#c#g#d#]
*c#:
*M3/4
*MM112
=1
[2.f##
=2
2.f##_
=3
2.f##_
=4
2.f##]
=5
8e
24a
24b
24a
8g#
8r
4ee
=6
8dd#
16r
16cc#
4dd#
4ee
=7
8g#
24a
24b
24a
8g#
8r
4ee
=8
8dd#
16r
16cc#
4dd#
4ee
=9
8ff#
16r
16gg#
4aa
8aa
8gg#
=10
8ff#
16r
16ee
4ff#
4gg#
=11
8ff#
16r
16gg#
4aa
8aa
8gg#
=12
8ff#
8ee
8dd#
4cc#
8a
=13
8g#
24a
24b
24a
8g#
8r
4ee
=14
8dd#
16r
16cc#
4dd#
4ee
=15
8g#
24a
24b
24a
8g#
8r
4ee
=16
8dd#
16r
16cc#
4dd#
4ee
=17
8ff#
16r
16gg#
4aa
8aa
8gg#
=18
8ff#
16r
16ee
4ff#
4gg#
=19
10ff#
10gg#
10aa
10bb
10ddd#
8ccc#
8aa
=20
8ff#
16r
16ee
4ff#
4gg#
=21
8ff#
16r
16a
4.ff#
8ee
=22
8dd#
16r
16cc#
4dd#
4ee
=23
4a
8fff#
8r
8r
8ee
=24
8dd#
16r
16cc#
4dd#
4ee
=25
4a
8aaa
8r
8r
8ee
=26
8dd#
16r
16cc#
4dd#
4ee
=27
4a
8dddd
8r
8r
8ee
=28
8dd#
16r
16cc#
4dd#
4ee
=29
8dd#
8cc#
4dd#
4ee
=30
8dd#
8cc#
4dd#
4ee
=31
2.dd#
=32
4gg#
2gg#
=33
2ff#
8ee
8dd#
=34
8ee
16r
16ee
4cc#
4gg#
=35
2ff#
8ee
8dd#
=36
8ee
16r
16ee
4cc#
4g#
=37
2ff#
8ee
8dd#
=38
8ee
16r
16ee
4cc#
4gg#
=39
[2.g#
=40
2.g#]
=41
2cc#
8b
8a#
=42
8b
16r
16b
4g#
4dd#
=43
2cc#
8b
8a#
=44
8b
16r
16b
4g#
4d#
=45
2cc#
8b
8a#
=46
8b
16r
16b
4g#
4dd#
=47
8.b
16b
4g#
4dd#
=48
8.ff#
16gg#
8.ff#
16gg#
8.ff#
16gg#
=49
2ff#
8ee
8dd#
=50
8ee
16r
16ee
4cc#
[4gg#
=51
2.gg#_
=52
2.gg#]
=53
2ff#
8ee
8dd#
=54
8ee
16r
16ee
4cc#
4gg#
=55
[2.g#
=56
2.g#]
=57
2cc#
8b
8a#
=58
8b
16r
16b
4g#
[4dd#
=59
2.dd#_
=60
2.dd#]
=61
2cc#
8b
8a#
=62
8b
16r
16b
4g#
4dd#
=63
8.b
16b
2g#
=64
8.b
16b
2g
=65
4.dd#
8cc#
8b#
8cc#
=66
4.ee
8dd#
4dd#
=67
4.ff#
8ff#
8.ee#
16ee
=68
2ee
4dd#
=69
8ff#
8ee#
4dd##
4ee#
=70
4.gg#
8ff#
4ff#
=71
4.aa#
8aa#
8.gg##
16gg#
=72
2gg#
4ff#
=73
8aa#
16r
16gg#
4ff##
4gg#
=74
8bb
16r
16aa#
[2aa#
=75
8.aa#]
16gg#
4gg#
8.aa#
16gg#
=76
8gg#
16r
16ff#
[2ff#
=77
8.ff#]
16g#
4g#
4ee
=78
8r
16r
16f#
4f#
[4dd#
=79
8.dd#]
16cc#
4b#
4cc#
=80
2gg#
[4ff#
=81
4.ff#]
8cc#
8b#
8cc#
=82
4.ee
8dd#
4dd#
=83
4.ff#
8ff#
8.ee#
16ee
=84
2ee
4dd#
=85
8ff#
8ee#
4dd##
4ee#
=86
4.gg#
8ff#
4ff#
=87
4.aa#
8aa#
8.gg##
16gg#
=88
2gg#
4ff#
=89
8aa#
16r
16gg#
4ff##
4gg#
=90
8bb
16r
16aa#
4aa#
4r
=91
8r
16r
16gg#
4gg#
8.aa#
16gg#
=92
8gg#
16r
16ff#
4ff#
4r
=93
8r
16r
16g#
4g#
4ee
=94
8r
16r
16f#
4f#
[4dd#
=95
4.dd#]
8cc#
8dd#
8cc#
=96
8.dd#
16cc#
4dd#
4cc#
=97
[2.f##
=98
2.f##]
=99
2.f#[
=100
2.f#]
=101
8e
24a
24b
24a
8g#
8r
4ee
=102
8dd#
16r
16cc#
4dd#
4ee
=103
8g#
24a
24b
24a
8g#
8r
4ee
=104
8dd#
16r
16cc#
4dd#
4ee
=105
8ff#
16r
16gg#
4aa
8aa
8gg#
=106
8ff#
16r
16ee
4ff#
4gg#
=107
8ff#
16r
16gg#
4aa
8aa
8gg#
=108
8ff#
8ee
8dd#
4cc#
8a
=109
8g#
24a
24b
24a
8g#
8r
4ee
=110
8dd#
16r
16cc#
4dd#
4ee
=111
8g#
24a
24b
24a
8g#
8r
4ee
=112
8dd#
16r
16cc#
4dd#
4ee
=113
8ff#
16r
16gg#
4aa
8aa
8gg#
=114
8ff#
16r
16ee
4ff#
4gg#
=115
10ff#
10gg#
10aa
10bb
10ddd#
8ccc#
8aa
=116
8ff#
16r
16ee
4ff#
4gg#
=117
8ff#
16r
16a
4.ff#
8ee
=118
8dd#
16r
16cc#
4dd#
4ee
=119
4a
8fff#
8r
8r
8ee
=120
8dd#
16r
16cc#
4dd#
4ee
=121
4a
8aaa
8r
8r
8ee
=122
8dd#
16r
16cc#
4dd#
4ee
=123
4a
8dddd
8r
8r
8ee
=124
8dd#
16r
16cc#
4dd#
4ee
=125
8.dd#
16cc#
4dd#
4ee
=126
8dd#
8cc#
4dd#
4ee
=127
8dd#
8cc#
4dd#
4ee
=128
8dd#
8cc#
4dd#
4ee
=129
8.cc#
16b#
4cc#
4cc
=130
8.b
16a#
4b
4b-
=131
8.a
16g#
4a
4a-
=132
8.g
16f#
4g
4f#
=133
2f#
8e
8d#
=134
8.f#
16f#
4d#
4cc#
=135
2f#
8e
8d#
=136
8.f#
16f#
4d#
4dd#
=137
8cc#
8a
4f#
4d#
=138
8c#
8A
4F#
4C#
=139
2.E
==
*-
